exports/overdose-deaths-due-to-opioids-in-the-us-1999-2015_v4_850x600.svg

<svg xmlns="http://www.w3.org/2000/svg" version="1.1" style="background-color:#fff;-webkit-font-smoothing:antialiased" width="850" height="600" font-family="'Helvetica Neue',Helvetica,Arial,sans-serif" font-size="18" text-rendering="optimizeLegibility"><g class="ChartTab"><g class="HeaderView"><g opacity=".8" transform="matrix(.27 0 0 .27 778 15)"><a xmlns:xlink="http://www.w3.org/1999/xlink" xlink:href="https://ourworldindata.org" target="_blank"><g><path fill="#1B2543" d="M0 0h211.2v130.1H0z"/><path fill="#E63912" d="M0 112.2h211.2v17.9H0z"/><g><path fill="none" d="M1.2 12.3h210.2v99.2H1.2z"/><path fill="#FFF" d="M37.8 32.2c0 12.7-7.7 19.4-17.1 19.4-9.7 0-16.6-7.5-16.6-18.7 0-11.7 7.3-19.3 17.1-19.3 10.1.1 16.6 7.7 16.6 18.6zm-28.6.6c0 7.9 4.3 14.9 11.8 14.9 7.5 0 11.8-6.9 11.8-15.3 0-7.3-3.8-14.9-11.8-14.9-7.9 0-11.8 7.3-11.8 15.3zM62.7 43.8c0 2.7.1 5.1.2 7.2h-4.3l-.3-4.3h-.1c-1.3 2.1-4 4.9-8.8 4.9-4.2 0-9.1-2.3-9.1-11.6V24.6h4.8v14.6c0 5 1.5 8.4 5.9 8.4 3.2 0 5.5-2.2 6.3-4.4.3-.7.4-1.6.4-2.5V24.6h4.8v19.2zM67.3 32.8c0-3.1-.1-5.8-.2-8.2h4.2l.2 5.2h.2c1.2-3.5 4.1-5.8 7.3-5.8.5 0 .9.1 1.4.2v4.5c-.5-.1-1-.2-1.6-.2-3.4 0-5.8 2.6-6.5 6.2-.1.7-.2 1.4-.2 2.2V51h-4.8V32.8zM95.4 51L86 14.2h5l4.4 18.6c1.1 4.6 2.1 9.2 2.7 12.7h.1c.6-3.7 1.8-8 3-12.8l4.9-18.5h5l4.5 18.7c1 4.4 2 8.7 2.6 12.6h.1c.8-4 1.8-8.1 3-12.7l4.9-18.5h4.9L120.6 51h-5L111 31.9c-1.1-4.7-1.9-8.3-2.4-12h-.1c-.7 3.7-1.5 7.3-2.8 12L100.4 51h-5zM154.9 37.6c0 9.8-6.8 14-13.2 14-7.2 0-12.7-5.2-12.7-13.6 0-8.8 5.8-14 13.1-14 7.7 0 12.8 5.5 12.8 13.6zm-21 .3c0 5.8 3.3 10.1 8 10.1 4.6 0 8-4.3 8-10.3 0-4.5-2.2-10.1-7.9-10.1s-8.1 5.2-8.1 10.3zM158.2 32.8c0-3.1-.1-5.8-.2-8.2h4.2l.2 5.2h.2c1.2-3.5 4.1-5.8 7.3-5.8.5 0 .9.1 1.4.2v4.5c-.5-.1-1-.2-1.6-.2-3.4 0-5.8 2.6-6.5 6.2-.1.7-.2 1.4-.2 2.2V51h-4.8V32.8zM173.5 12.3h4.8V51h-4.8V12.3zM206.5 12.3v31.9c0 2.3.1 5 .2 6.8h-4.3l-.2-4.6h-.2c-1.5 2.9-4.7 5.2-9 5.2-6.4 0-11.3-5.4-11.3-13.4-.1-8.8 5.4-14.2 11.9-14.2 4 0 6.8 1.9 8 4h.1V12.3h4.8zm-4.8 23.1c0-.6-.1-1.4-.2-2a7 7 0 00-6.9-5.6c-5 0-7.9 4.4-7.9 10.2 0 5.3 2.6 9.8 7.8 9.8 3.2 0 6.2-2.1 7.1-5.7.2-.7.2-1.3.2-2.1v-4.6zM42.8 64c.1 1.6-1.1 2.9-3.1 2.9-1.7 0-2.9-1.3-2.9-2.9 0-1.7 1.3-3 3-3 1.9 0 3 1.3 3 3zm-5.4 33.8V71.4h4.8v26.4h-4.8zM47.5 78.6c0-2.7-.1-5-.2-7.1h4.3l.3 4.4h.1c1.3-2.5 4.4-5 8.8-5 3.7 0 9.4 2.2 9.4 11.2v15.8h-4.8V82.6c0-4.3-1.6-7.8-6.1-7.8-3.2 0-5.6 2.2-6.5 4.9-.2.6-.3 1.4-.3 2.2v15.9h-4.8V78.6zM84 61.6c2.9-.4 6.3-.8 10.1-.8 6.8 0 11.7 1.6 14.9 4.6 3.3 3 5.2 7.3 5.2 13.2 0 6-1.9 10.9-5.3 14.3-3.4 3.4-9.1 5.3-16.3 5.3-3.4 0-6.2-.2-8.6-.4V61.6zm4.8 32.5c1.2.2 3 .3 4.8.3 10.2 0 15.7-5.7 15.7-15.6.1-8.7-4.9-14.2-14.9-14.2-2.5 0-4.3.2-5.6.5v29zM132.1 97.8l-.4-3.3h-.2a9.79 9.79 0 01-8.1 3.9c-5.4 0-8.1-3.8-8.1-7.6 0-6.4 5.7-9.9 15.9-9.8v-.5c0-2.2-.6-6.1-6-6.1-2.5 0-5 .8-6.9 2l-1.1-3.2c2.2-1.4 5.4-2.3 8.7-2.3 8.1 0 10.1 5.5 10.1 10.8v9.9c0 2.3.1 4.5.4 6.3h-4.3zm-.7-13.4c-5.3-.1-11.2.8-11.2 5.9 0 3.1 2.1 4.6 4.5 4.6 3.4 0 5.6-2.2 6.4-4.4.2-.5.3-1 .3-1.5v-4.6zM146.6 63.9v7.6h6.9v3.7h-6.9v14.2c0 3.3.9 5.1 3.6 5.1 1.3 0 2.2-.2 2.8-.3l.2 3.6c-.9.4-2.4.7-4.3.7-2.2 0-4-.7-5.2-2-1.4-1.4-1.9-3.8-1.9-6.9V75.1h-4.1v-3.7h4.1v-6.3l4.8-1.2zM171.4 97.8l-.4-3.3h-.2a9.79 9.79 0 01-8.1 3.9c-5.4 0-8.1-3.8-8.1-7.6 0-6.4 5.7-9.9 15.9-9.8v-.5c0-2.2-.6-6.1-6-6.1-2.5 0-5 .8-6.9 2l-1.1-3.2c2.2-1.4 5.4-2.3 8.7-2.3 8.1 0 10.1 5.5 10.1 10.8v9.9c0 2.3.1 4.5.4 6.3h-4.3zm-.7-13.4c-5.3-.1-11.2.8-11.2 5.9 0 3.1 2.1 4.6 4.5 4.6 3.4 0 5.6-2.2 6.4-4.4.2-.5.3-1 .3-1.5v-4.6z"/></g></g></a></g><a href="https://ourworldindata.org/grapher/drug-overdose-death-rates" target="_blank"><text font-size="25.2" x="15" y="35.2" fill="#555"><tspan x="15" y="35.16">Drug overdose death rates, United States</tspan></text></a><text font-size="14.4" x="15" y="53.7" fill="#666"><tspan x="15" y="53.72">Death rates from drug overdoses in the United States, measured as the number of deaths per 100,000 individuals (of</tspan><tspan x="15" y="69.56">all ages, not age-standardized).</tspan></text></g><g class="LineChart"><defs><clipPath id="a"><path d="M28.14 0h830v928.8h-830z"/></clipPath></defs><g class="AxisBoxView"><g class="HorizontalAxis" fill="#666" text-anchor="middle" font-size="16.2"><text x="38.1" y="556.5">1999</text><text x="156.6" y="556.5">2002</text><text x="235.6" y="556.5">2004</text><text x="314.5" y="556.5">2006</text><text x="393.5" y="556.5">2008</text><text x="472.4" y="556.5">2010</text><text x="551.4" y="556.5">2012</text><text x="669.9" y="556.5">2015</text></g><g class="VerticalAxis" fill="#666" dominant-baseline="middle" text-anchor="end" font-size="16.2"><text x="33.14" y="535.3">0</text><text x="33.14" y="449.3">2</text><text x="33.14" y="363.4">4</text><text x="33.14" y="277.4">6</text><text x="33.14" y="191.5">8</text><text x="33.14" y="105.5">10</text></g><g class="AxisGridLines"><path stroke="#ccc" d="M38.14 535.3h631.72"/><path stroke="#ddd" stroke-dasharray="3,2" d="M38.14 449.3h631.72M38.14 363.4h631.72M38.14 277.4h631.72M38.14 191.5h631.72M38.14 105.5h631.72"/></g></g><g clip-path="url(#a)"><g class="HeightedLegend clickable"><g class="legendMark"><text font-size="13.5" x="674.9" y="96.1" fill="#f6a324"><tspan x="674.86" y="96.15">Any Opioids</tspan></text></g><g class="legendMark"><text font-size="13.5" x="674.9" y="236.7" fill="#34983f"><tspan x="674.86" y="236.65">Opioid Pain Relievers</tspan></text></g><g class="legendMark"><text font-size="13.5" x="674.9" y="365.4" fill="#ca2628"><tspan x="674.86" y="365.35">Heroin</tspan></text></g><g class="legendMark"><text font-size="13.5" x="674.9" y="448.4" fill="#3360a9"><tspan x="674.86" y="448.45">Cocaine</tspan></text></g></g><g class="Lines"><g class="key-United-States_0"><path stroke="#f6a324" stroke-linecap="round" d="M38 409l40-2 39-15 40-35 39-13 40-11 39-15 40-35 39-12 40-12 39-10 39-7 40-21 39-3 40-23 39-46 40-57" fill="none" stroke-width="1.5"/><g fill="#f6a324"><circle cx="38" cy="409" r="2"/><circle cx="78" cy="407" r="2"/><circle cx="117" cy="392" r="2"/><circle cx="157" cy="357" r="2"/><circle cx="196" cy="344" r="2"/><circle cx="236" cy="333" r="2"/><circle cx="275" cy="318" r="2"/><circle cx="315" cy="283" r="2"/><circle cx="354" cy="271" r="2"/><circle cx="394" cy="259" r="2"/><circle cx="433" cy="249" r="2"/><circle cx="472" cy="242" r="2"/><circle cx="512" cy="221" r="2"/><circle cx="551" cy="218" r="2"/><circle cx="591" cy="195" r="2"/><circle cx="630" cy="149" r="2"/><circle cx="670" cy="92" r="2"/></g></g><g class="key-United-States_1"><path stroke="#3360a9" stroke-linecap="round" d="M38 475l40 6 39-3 40-11 39-9 40-3 39-10 40-17 39 14 40 21 39 11 39 3 40-6 39 4 40-7 39-6 40-18" fill="none" stroke-width="1.5"/><g fill="#3360a9"><circle cx="38" cy="475" r="2"/><circle cx="78" cy="481" r="2"/><circle cx="117" cy="478" r="2"/><circle cx="157" cy="467" r="2"/><circle cx="196" cy="458" r="2"/><circle cx="236" cy="455" r="2"/><circle cx="275" cy="445" r="2"/><circle cx="315" cy="428" r="2"/><circle cx="354" cy="442" r="2"/><circle cx="394" cy="463" r="2"/><circle cx="433" cy="474" r="2"/><circle cx="472" cy="477" r="2"/><circle cx="512" cy="471" r="2"/><circle cx="551" cy="475" r="2"/><circle cx="591" cy="468" r="2"/><circle cx="630" cy="462" r="2"/><circle cx="670" cy="444" r="2"/></g></g><g class="key-United-States_2"><path stroke="#ca2628" stroke-linecap="round" d="M38 504l40 3 39 2 40-5 39 1 40 3 39-2 40-1 39-4 40-9 39-3 39 4 40-18 39-21 40-31 39-30 40-32" fill="none" stroke-width="1.5"/><g fill="#ca2628"><circle cx="38" cy="504" r="2"/><circle cx="78" cy="507" r="2"/><circle cx="117" cy="509" r="2"/><circle cx="157" cy="504" r="2"/><circle cx="196" cy="505" r="2"/><circle cx="236" cy="508" r="2"/><circle cx="275" cy="506" r="2"/><circle cx="315" cy="505" r="2"/><circle cx="354" cy="501" r="2"/><circle cx="394" cy="492" r="2"/><circle cx="433" cy="489" r="2"/><circle cx="472" cy="493" r="2"/><circle cx="512" cy="475" r="2"/><circle cx="551" cy="454" r="2"/><circle cx="591" cy="423" r="2"/><circle cx="630" cy="393" r="2"/><circle cx="670" cy="361" r="2"/></g></g><g class="key-United-States_3"><path stroke="#34983f" stroke-linecap="round" d="M38 472l40-4 39-16 40-28 39-15 40-18 39-15 40-38 39-8 40-4 39-9 39-13 40-2 39 14 40-1 39-35 40-47" fill="none" stroke-width="1.5"/><g fill="#34983f"><circle cx="38" cy="472" r="2"/><circle cx="78" cy="468" r="2"/><circle cx="117" cy="452" r="2"/><circle cx="157" cy="424" r="2"/><circle cx="196" cy="409" r="2"/><circle cx="236" cy="391" r="2"/><circle cx="275" cy="376" r="2"/><circle cx="315" cy="338" r="2"/><circle cx="354" cy="330" r="2"/><circle cx="394" cy="326" r="2"/><circle cx="433" cy="317" r="2"/><circle cx="472" cy="304" r="2"/><circle cx="512" cy="302" r="2"/><circle cx="551" cy="316" r="2"/><circle cx="591" cy="315" r="2"/><circle cx="630" cy="280" r="2"/><circle cx="670" cy="233" r="2"/></g></g></g></g></g><g class="SourcesFooter" fill="#777"><g class="clickable" fill="#777"><text font-size="12.6" x="15" y="581.6"><tspan x="15" y="581.58">Source: CDC WONDER (2017)</tspan></text></g><text font-size="12.6" x="563.2" y="581.6"><tspan x="563.22" y="581.58"><a target="_blank" href="https://ourworldindata.org/substance-use" fill="#777">OurWorldInData.org/substance-use</a> • <a class="cclogo" href="http://creativecommons.org/licenses/by-sa/4.0/deed.en_US" target="_blank" fill="#777">CC BY-SA</a></tspan></text></g></g></svg>

<svg xmlns="http://www.w3.org/2000/svg" version="1.1" style="font-family: 'Helvetica Neue', Helvetica, Arial, sans-serif; font-size: 18px; background-color: white; text-rendering: optimizeLegibility; -webkit-font-smoothing: antialiased;" width="850" height="600"><g class="ChartTab"><g class="HeaderView"><g opacity="0.8" transform="translate(778, 15) scale(0.27)"><a xmlns:xlink="http://www.w3.org/1999/xlink" xlink:href="https://ourworldindata.org" target="_blank"><g><rect x="0" y="0" fill="#1B2543" width="211.2" height="130.1"/><rect x="0" y="112.2" fill="#E63912" width="211.2" height="17.9"/><g><rect x="1.2" y="12.3" fill="none" width="210.2" height="99.2"/><path fill="#FFFFFF" d="M37.8,32.2c0,12.7-7.7,19.4-17.1,19.4c-9.7,0-16.6-7.5-16.6-18.7c0-11.7,7.3-19.3,17.1-19.3 C31.3,13.7,37.8,21.3,37.8,32.2z M9.2,32.8c0,7.9,4.3,14.9,11.8,14.9c7.5,0,11.8-6.9,11.8-15.3c0-7.3-3.8-14.9-11.8-14.9 C13.1,17.5,9.2,24.8,9.2,32.8z"/><path fill="#FFFFFF" d="M62.7,43.8c0,2.7,0.1,5.1,0.2,7.2h-4.3l-0.3-4.3h-0.1c-1.3,2.1-4,4.9-8.8,4.9c-4.2,0-9.1-2.3-9.1-11.6 V24.6h4.8v14.6c0,5,1.5,8.4,5.9,8.4c3.2,0,5.5-2.2,6.3-4.4c0.3-0.7,0.4-1.6,0.4-2.5V24.6h4.8V43.8z"/><path fill="#FFFFFF" d="M67.3,32.8c0-3.1-0.1-5.8-0.2-8.2h4.2l0.2,5.2h0.2c1.2-3.5,4.1-5.8,7.3-5.8c0.5,0,0.9,0.1,1.4,0.2v4.5 c-0.5-0.1-1-0.2-1.6-0.2c-3.4,0-5.8,2.6-6.5,6.2c-0.1,0.7-0.2,1.4-0.2,2.2V51h-4.8V32.8z"/><path fill="#FFFFFF" d="M95.4,51l-9.4-36.8h5l4.4,18.6c1.1,4.6,2.1,9.2,2.7,12.7h0.1c0.6-3.7,1.8-8,3-12.8l4.9-18.5h5l4.5,18.7 c1,4.4,2,8.7,2.6,12.6h0.1c0.8-4,1.8-8.1,3-12.7l4.9-18.5h4.9L120.6,51h-5L111,31.9c-1.1-4.7-1.9-8.3-2.4-12h-0.1 c-0.7,3.7-1.5,7.3-2.8,12L100.4,51H95.4z"/><path fill="#FFFFFF" d="M154.9,37.6c0,9.8-6.8,14-13.2,14c-7.2,0-12.7-5.2-12.7-13.6c0-8.8,5.8-14,13.1-14 C149.8,24,154.9,29.5,154.9,37.6z M133.9,37.9c0,5.8,3.3,10.1,8,10.1c4.6,0,8-4.3,8-10.3c0-4.5-2.2-10.1-7.9-10.1 C136.3,27.6,133.9,32.8,133.9,37.9z"/><path fill="#FFFFFF" d="M158.2,32.8c0-3.1-0.1-5.8-0.2-8.2h4.2l0.2,5.2h0.2c1.2-3.5,4.1-5.8,7.3-5.8c0.5,0,0.9,0.1,1.4,0.2v4.5 c-0.5-0.1-1-0.2-1.6-0.2c-3.4,0-5.8,2.6-6.5,6.2c-0.1,0.7-0.2,1.4-0.2,2.2V51h-4.8V32.8z"/><path fill="#FFFFFF" d="M173.5,12.3h4.8V51h-4.8V12.3z"/><path fill="#FFFFFF" d="M206.5,12.3v31.9c0,2.3,0.1,5,0.2,6.8h-4.3l-0.2-4.6H202c-1.5,2.9-4.7,5.2-9,5.2 c-6.4,0-11.3-5.4-11.3-13.4c-0.1-8.8,5.4-14.2,11.9-14.2c4,0,6.8,1.9,8,4h0.1V12.3H206.5z M201.7,35.4c0-0.6-0.1-1.4-0.2-2 c-0.7-3.1-3.3-5.6-6.9-5.6c-5,0-7.9,4.4-7.9,10.2c0,5.3,2.6,9.8,7.8,9.8c3.2,0,6.2-2.1,7.1-5.7c0.2-0.7,0.2-1.3,0.2-2.1V35.4z"/><path fill="#FFFFFF" d="M42.8,64c0.1,1.6-1.1,2.9-3.1,2.9c-1.7,0-2.9-1.3-2.9-2.9c0-1.7,1.3-3,3-3C41.7,61,42.8,62.3,42.8,64z M37.4,97.8V71.4h4.8v26.4H37.4z"/><path fill="#FFFFFF" d="M47.5,78.6c0-2.7-0.1-5-0.2-7.1h4.3l0.3,4.4h0.1c1.3-2.5,4.4-5,8.8-5c3.7,0,9.4,2.2,9.4,11.2v15.8h-4.8 V82.6c0-4.3-1.6-7.8-6.1-7.8c-3.2,0-5.6,2.2-6.5,4.9c-0.2,0.6-0.3,1.4-0.3,2.2v15.9h-4.8V78.6z"/><path fill="#FFFFFF" d="M84,61.6c2.9-0.4,6.3-0.8,10.1-0.8c6.8,0,11.7,1.6,14.9,4.6c3.3,3,5.2,7.3,5.2,13.2c0,6-1.9,10.9-5.3,14.3 c-3.4,3.4-9.1,5.3-16.3,5.3c-3.4,0-6.2-0.2-8.6-0.4V61.6z M88.8,94.1c1.2,0.2,3,0.3,4.8,0.3c10.2,0,15.7-5.7,15.7-15.6 c0.1-8.7-4.9-14.2-14.9-14.2c-2.5,0-4.3,0.2-5.6,0.5V94.1z"/><path fill="#FFFFFF" d="M132.1,97.8l-0.4-3.3h-0.2c-1.5,2.1-4.3,3.9-8.1,3.9c-5.4,0-8.1-3.8-8.1-7.6c0-6.4,5.7-9.9,15.9-9.8v-0.5 c0-2.2-0.6-6.1-6-6.1c-2.5,0-5,0.8-6.9,2l-1.1-3.2c2.2-1.4,5.4-2.3,8.7-2.3c8.1,0,10.1,5.5,10.1,10.8v9.9c0,2.3,0.1,4.5,0.4,6.3 H132.1z M131.4,84.4c-5.3-0.1-11.2,0.8-11.2,5.9c0,3.1,2.1,4.6,4.5,4.6c3.4,0,5.6-2.2,6.4-4.4c0.2-0.5,0.3-1,0.3-1.5V84.4z"/><path fill="#FFFFFF" d="M146.6,63.9v7.6h6.9v3.7h-6.9v14.2c0,3.3,0.9,5.1,3.6,5.1c1.3,0,2.2-0.2,2.8-0.3l0.2,3.6 c-0.9,0.4-2.4,0.7-4.3,0.7c-2.2,0-4-0.7-5.2-2c-1.4-1.4-1.9-3.8-1.9-6.9V75.1h-4.1v-3.7h4.1v-6.3L146.6,63.9z"/><path fill="#FFFFFF" d="M171.4,97.8l-0.4-3.3h-0.2c-1.5,2.1-4.3,3.9-8.1,3.9c-5.4,0-8.1-3.8-8.1-7.6c0-6.4,5.7-9.9,15.9-9.8v-0.5 c0-2.2-0.6-6.1-6-6.1c-2.5,0-5,0.8-6.9,2l-1.1-3.2c2.2-1.4,5.4-2.3,8.7-2.3c8.1,0,10.1,5.5,10.1,10.8v9.9c0,2.3,0.1,4.5,0.4,6.3 H171.4z M170.7,84.4c-5.3-0.1-11.2,0.8-11.2,5.9c0,3.1,2.1,4.6,4.5,4.6c3.4,0,5.6-2.2,6.4-4.4c0.2-0.5,0.3-1,0.3-1.5V84.4z"/></g></g></a></g><a href="https://ourworldindata.org/grapher/drug-overdose-death-rates" target="_blank"><text font-size="25.20" x="15.0" y="35.2" fill="#555"><tspan x="15" y="35.160000000000004">Drug overdose death rates, United States</tspan></text></a><text font-size="14.40" x="15.0" y="53.7" fill="#666"><tspan x="15" y="53.72">Death rates from drug overdoses in the United States, measured as the number of deaths per 100,000 individuals (of</tspan><tspan x="15" y="69.56">all ages, not age-standardized).</tspan></text></g><g class="LineChart"><defs><clipPath id="boundsClip-30"><rect x="28.144000000000005" y="0" width="830" height="928.8"></rect></clipPath></defs><g class="AxisBoxView"><g class="HorizontalAxis"><text x="38.1" y="556.5" fill="#666" text-anchor="middle" font-size="16.2">1999</text><text x="156.6" y="556.5" fill="#666" text-anchor="middle" font-size="16.2">2002</text><text x="235.6" y="556.5" fill="#666" text-anchor="middle" font-size="16.2">2004</text><text x="314.5" y="556.5" fill="#666" text-anchor="middle" font-size="16.2">2006</text><text x="393.5" y="556.5" fill="#666" text-anchor="middle" font-size="16.2">2008</text><text x="472.4" y="556.5" fill="#666" text-anchor="middle" font-size="16.2">2010</text><text x="551.4" y="556.5" fill="#666" text-anchor="middle" font-size="16.2">2012</text><text x="669.9" y="556.5" fill="#666" text-anchor="middle" font-size="16.2">2015</text></g><g class="VerticalAxis"><text x="33.14" y="535.3" fill="#666" dominant-baseline="middle" text-anchor="end" font-size="16.2">0</text><text x="33.14" y="449.3" fill="#666" dominant-baseline="middle" text-anchor="end" font-size="16.2">2</text><text x="33.14" y="363.4" fill="#666" dominant-baseline="middle" text-anchor="end" font-size="16.2">4</text><text x="33.14" y="277.4" fill="#666" dominant-baseline="middle" text-anchor="end" font-size="16.2">6</text><text x="33.14" y="191.5" fill="#666" dominant-baseline="middle" text-anchor="end" font-size="16.2">8</text><text x="33.14" y="105.5" fill="#666" dominant-baseline="middle" text-anchor="end" font-size="16.2">10</text></g><g class="AxisGridLines"><line x1="38.14" y1="535.3" x2="669.86" y2="535.3" stroke="#ccc"></line><line x1="38.14" y1="449.3" x2="669.86" y2="449.3" stroke="#ddd" stroke-dasharray="3,2"></line><line x1="38.14" y1="363.4" x2="669.86" y2="363.4" stroke="#ddd" stroke-dasharray="3,2"></line><line x1="38.14" y1="277.4" x2="669.86" y2="277.4" stroke="#ddd" stroke-dasharray="3,2"></line><line x1="38.14" y1="191.5" x2="669.86" y2="191.5" stroke="#ddd" stroke-dasharray="3,2"></line><line x1="38.14" y1="105.5" x2="669.86" y2="105.5" stroke="#ddd" stroke-dasharray="3,2"></line></g></g><g clip-path="url(#boundsClip-30)"><g class="HeightedLegend clickable"><g class="legendMark"><rect x="669.86" y="85.35" width="108.03500000000001" height="13.5" fill="#fff" opacity="0"></rect><text font-size="13.50" x="674.9" y="96.1" fill="#f6a324"><tspan x="674.86" y="96.14999999999999">Any Opioids</tspan></text></g><g class="legendMark"><rect x="669.86" y="225.85" width="165.14000000000001" height="13.5" fill="#fff" opacity="0"></rect><text font-size="13.50" x="674.9" y="236.7" fill="#34983f"><tspan x="674.86" y="236.65">Opioid Pain Relievers</tspan></text></g><g class="legendMark"><rect x="669.86" y="354.55" width="74.825" height="13.5" fill="#fff" opacity="0"></rect><text font-size="13.50" x="674.9" y="365.4" fill="#ca2628"><tspan x="674.86" y="365.35">Heroin</tspan></text></g><g class="legendMark"><rect x="669.86" y="437.65" width="84.68" height="13.5" fill="#fff" opacity="0"></rect><text font-size="13.50" x="674.9" y="448.4" fill="#3360a9"><tspan x="674.86" y="448.45">Cocaine</tspan></text></g></g><g class="Lines"><rect x="38" y="92" width="632" height="443" fill="rgba(255,255,255,0)" opacity="0"></rect><g class="key-United-States_0"><path stroke="#f6a324" stroke-linecap="round" d="M38 409L78 407L117 392L157 357L196 344L236 333L275 318L315 283L354 271L394 259L433 249L472 242L512 221L551 218L591 195L630 149L670 92" fill="none" stroke-width="1.5"></path><g fill="#f6a324"><circle cx="38" cy="409" r="2"></circle><circle cx="78" cy="407" r="2"></circle><circle cx="117" cy="392" r="2"></circle><circle cx="157" cy="357" r="2"></circle><circle cx="196" cy="344" r="2"></circle><circle cx="236" cy="333" r="2"></circle><circle cx="275" cy="318" r="2"></circle><circle cx="315" cy="283" r="2"></circle><circle cx="354" cy="271" r="2"></circle><circle cx="394" cy="259" r="2"></circle><circle cx="433" cy="249" r="2"></circle><circle cx="472" cy="242" r="2"></circle><circle cx="512" cy="221" r="2"></circle><circle cx="551" cy="218" r="2"></circle><circle cx="591" cy="195" r="2"></circle><circle cx="630" cy="149" r="2"></circle><circle cx="670" cy="92" r="2"></circle></g></g><g class="key-United-States_1"><path stroke="#3360a9" stroke-linecap="round" d="M38 475L78 481L117 478L157 467L196 458L236 455L275 445L315 428L354 442L394 463L433 474L472 477L512 471L551 475L591 468L630 462L670 444" fill="none" stroke-width="1.5"></path><g fill="#3360a9"><circle cx="38" cy="475" r="2"></circle><circle cx="78" cy="481" r="2"></circle><circle cx="117" cy="478" r="2"></circle><circle cx="157" cy="467" r="2"></circle><circle cx="196" cy="458" r="2"></circle><circle cx="236" cy="455" r="2"></circle><circle cx="275" cy="445" r="2"></circle><circle cx="315" cy="428" r="2"></circle><circle cx="354" cy="442" r="2"></circle><circle cx="394" cy="463" r="2"></circle><circle cx="433" cy="474" r="2"></circle><circle cx="472" cy="477" r="2"></circle><circle cx="512" cy="471" r="2"></circle><circle cx="551" cy="475" r="2"></circle><circle cx="591" cy="468" r="2"></circle><circle cx="630" cy="462" r="2"></circle><circle cx="670" cy="444" r="2"></circle></g></g><g class="key-United-States_2"><path stroke="#ca2628" stroke-linecap="round" d="M38 504L78 507L117 509L157 504L196 505L236 508L275 506L315 505L354 501L394 492L433 489L472 493L512 475L551 454L591 423L630 393L670 361" fill="none" stroke-width="1.5"></path><g fill="#ca2628"><circle cx="38" cy="504" r="2"></circle><circle cx="78" cy="507" r="2"></circle><circle cx="117" cy="509" r="2"></circle><circle cx="157" cy="504" r="2"></circle><circle cx="196" cy="505" r="2"></circle><circle cx="236" cy="508" r="2"></circle><circle cx="275" cy="506" r="2"></circle><circle cx="315" cy="505" r="2"></circle><circle cx="354" cy="501" r="2"></circle><circle cx="394" cy="492" r="2"></circle><circle cx="433" cy="489" r="2"></circle><circle cx="472" cy="493" r="2"></circle><circle cx="512" cy="475" r="2"></circle><circle cx="551" cy="454" r="2"></circle><circle cx="591" cy="423" r="2"></circle><circle cx="630" cy="393" r="2"></circle><circle cx="670" cy="361" r="2"></circle></g></g><g class="key-United-States_3"><path stroke="#34983f" stroke-linecap="round" d="M38 472L78 468L117 452L157 424L196 409L236 391L275 376L315 338L354 330L394 326L433 317L472 304L512 302L551 316L591 315L630 280L670 233" fill="none" stroke-width="1.5"></path><g fill="#34983f"><circle cx="38" cy="472" r="2"></circle><circle cx="78" cy="468" r="2"></circle><circle cx="117" cy="452" r="2"></circle><circle cx="157" cy="424" r="2"></circle><circle cx="196" cy="409" r="2"></circle><circle cx="236" cy="391" r="2"></circle><circle cx="275" cy="376" r="2"></circle><circle cx="315" cy="338" r="2"></circle><circle cx="354" cy="330" r="2"></circle><circle cx="394" cy="326" r="2"></circle><circle cx="433" cy="317" r="2"></circle><circle cx="472" cy="304" r="2"></circle><circle cx="512" cy="302" r="2"></circle><circle cx="551" cy="316" r="2"></circle><circle cx="591" cy="315" r="2"></circle><circle cx="630" cy="280" r="2"></circle><circle cx="670" cy="233" r="2"></circle></g></g></g></g></g><g style="fill: #777;" class="SourcesFooter"><g style="fill: #777;" class="clickable"><text font-size="12.60" x="15.0" y="581.6"><tspan x="15" y="581.58">Source: CDC WONDER (2017)</tspan></text></g><text font-size="12.60" x="563.2" y="581.6"><tspan x="563.2180000000001" y="581.58"><a target='_blank' style='fill: #777;' href='https://ourworldindata.org/substance-use'>OurWorldInData.org/substance-use</a> • <a style="fill: #777;" class="cclogo" href="http://creativecommons.org/licenses/by-sa/4.0/deed.en_US" target="_blank">CC BY-SA</a></tspan></text></g></g></svg>
